X: 24642
T: Macdougall's
R: jig
M: 6/8
K: Amixolydian
ABc a3|gfe g2 a|c c2 c c2|B<Be dBG|ABc a3|
gfe g2 a|g2 e c<ce|dBG A3:|c>de e2 A|
d2 e g2 a|c>de e2 A|d2 e dBG|cde e2 c|
d2 e g2 a|g2 e c2 e|dBG A3:|

